icon-themes/breeze_svg/sw/res/sidebar/pageproppanel/format_L_mirror_24x24.svg

<svg viewBox="0 0 26 26" xmlns="http://www.w3.org/2000/svg"><path d="m0 3v19h1 11 1 11 1v-1-17-1h-1-11-1-11zm1 1h11v16 1h-11zm12 0h11v17h-11z" fill="#4d4d4d"/><path d="m3 4v2h-2v1h2v11h-2v1h2v2h1v-2h5v2h1v-2h2v-1h-2v-11h2v-1h-2v-2h-1v2h-5v-2zm12 0v2h-2v1h2v11h-2v1h2v2h1v-2h5v2h1v-2h2v-1h-2v-11h2v-1h-2v-2h-1v2h-5v-2zm-11 3h5v11h-5zm12 0h5v11h-5z" fill="#1d99f3"/></svg>

<svg xmlns="http://www.w3.org/2000/svg" viewBox="0 0 26 26">
 <path 
     style="fill:#4d4d4d" 
     d="M 0 3 L 0 22 L 1 22 L 12 22 L 13 22 L 24 22 L 25 22 L 25 21 L 25 4 L 25 3 L 24 3 L 13 3 L 12 3 L 1 3 L 0 3 z M 1 4 L 12 4 L 12 20 L 12 21 L 1 21 L 1 4 z M 13 4 L 24 4 L 24 21 L 13 21 L 13 4 z "
     />
 <path 
     style="fill:#1d99f3" 
     d="M 3 4 L 3 6 L 1 6 L 1 7 L 3 7 L 3 18 L 1 18 L 1 19 L 3 19 L 3 21 L 4 21 L 4 19 L 9 19 L 9 21 L 10 21 L 10 19 L 12 19 L 12 18 L 10 18 L 10 7 L 12 7 L 12 6 L 10 6 L 10 4 L 9 4 L 9 6 L 4 6 L 4 4 L 3 4 z M 15 4 L 15 6 L 13 6 L 13 7 L 15 7 L 15 18 L 13 18 L 13 19 L 15 19 L 15 21 L 16 21 L 16 19 L 21 19 L 21 21 L 22 21 L 22 19 L 24 19 L 24 18 L 22 18 L 22 7 L 24 7 L 24 6 L 22 6 L 22 4 L 21 4 L 21 6 L 16 6 L 16 4 L 15 4 z M 4 7 L 9 7 L 9 18 L 4 18 L 4 7 z M 16 7 L 21 7 L 21 18 L 16 18 L 16 7 z "
     />
</svg>
